app/images/ben-04-zzz.svg

<?xml version="1.0" encoding="UTF-8" standalone="no"?>
<svg width="96px" height="64px" viewBox="0 0 96 64" version="1.1" xmlns="http://www.w3.org/2000/svg" xmlns:xlink="http://www.w3.org/1999/xlink">
    <!-- Generator: Sketch 40 (33762) - http://www.bohemiancoding.com/sketch -->
    <title>Shape</title>
    <desc>Created with Sketch.</desc>
    <defs></defs>
    <g id="Page-1" stroke="none" stroke-width="1" fill="none" fill-rule="evenodd">
        <path d="M31.5092025,28.347032 C30.3312883,29.5159817 28.8588957,31.2694064 27.0920245,33.6073059 C25.3251534,35.9452055 23.2638037,38.283105 21.202454,40.913242 C19.1411043,43.543379 17.0797546,46.4657534 14.7239264,49.3881279 C12.6625767,52.3105023 10.601227,55.2328767 9.12883436,57.8630137 L32.0981595,57.8630137 L32.0981595,64 L0,64 L0,59.0319635 C1.17791411,56.6940639 2.94478528,54.0639269 4.71165644,51.1415525 C6.47852761,48.2191781 8.5398773,45.5890411 10.601227,42.6666667 C12.6625767,39.7442922 14.7239264,37.1141553 16.7852761,34.7762557 C18.8466258,32.4383562 20.3190184,30.1004566 21.791411,28.6392694 L1.17791411,28.6392694 L1.17791411,22.5022831 L31.5092025,22.5022831 L31.5092025,28.347032 L31.5092025,28.347032 Z M95.4110429,2.33789954 C94.8220859,2.92237443 94.2331288,3.50684932 93.6441718,4.38356164 C93.0552147,5.26027397 92.1717791,6.42922374 91.2883436,7.59817352 L88.6380368,11.1050228 C87.7546012,12.2739726 86.8711656,13.4429224 86.2822086,14.6118721 L96,14.6118721 L96,17.2420091 L82.7484663,17.2420091 L82.7484663,15.196347 C83.3374233,14.3196347 83.9263804,13.1506849 84.809816,11.9817352 C85.6932515,10.8127854 86.2822086,9.64383562 87.1656442,8.47488584 C88.0490798,7.30593607 88.9325153,6.1369863 89.8159509,5.26027397 C90.6993865,4.38356164 91.2883436,3.21461187 91.8773006,2.63013699 L83.3374233,2.63013699 L83.3374233,0 L96,0 L96,2.33789954 L95.4110429,2.33789954 Z M68.0245399,14.9041096 C67.1411043,15.7808219 66.2576687,16.9497717 65.0797546,18.4109589 C63.9018405,19.8721461 62.4294479,21.6255708 60.9570552,23.6712329 C59.4846626,25.716895 58.0122699,27.4703196 56.5398773,29.5159817 C55.0674847,31.5616438 53.8895706,33.6073059 52.7116564,35.3607306 L68.6134969,35.3607306 L68.6134969,39.7442922 L46.5276074,39.7442922 L46.5276074,36.2374429 C47.4110429,34.4840183 48.5889571,32.7305936 49.7668712,30.9771689 C50.9447853,28.9315068 52.4171779,27.1780822 53.8895706,25.1324201 C55.3619632,23.086758 56.8343558,21.3333333 58.0122699,19.5799087 C59.4846626,17.826484 60.6625767,16.3652968 61.5460123,15.196347 L47.4110429,15.196347 L47.4110429,10.8127854 L68.3190184,10.8127854 L68.3190184,14.9041096 L68.0245399,14.9041096 Z" id="Shape" fill="#000000"></path>
    </g>
</svg>

<?xml version="1.0" encoding="utf-8"?>
<!-- Generator: Adobe Illustrator 16.0.0, SVG Export Plug-In . SVG Version: 6.00 Build 0)  -->
<!DOCTYPE svg PUBLIC "-//W3C//DTD SVG 1.1//EN" "http://www.w3.org/Graphics/SVG/1.1/DTD/svg11.dtd">
<svg version="1.1" id="Layer_1" xmlns="http://www.w3.org/2000/svg" xmlns:xlink="http://www.w3.org/1999/xlink" x="0px" y="0px"
	 width="96px" height="64px" viewBox="0 0 96 64" enable-background="new 0 0 96 64" xml:space="preserve">
<title>Shape</title>
<desc>Created with Sketch.</desc>
<g id="Page-1">
	<path id="Shape" fill="#333366" d="M31.509,28.347c-1.178,1.169-2.65,2.922-4.417,5.26c-1.767,2.338-3.828,4.676-5.889,7.306
		c-2.062,2.63-4.123,5.553-6.479,8.476c-2.062,2.922-4.123,5.844-5.595,8.475h22.969V64H0v-4.969
		c1.178-2.338,2.945-4.967,4.712-7.89c1.767-2.923,3.828-5.553,5.889-8.476c2.062-2.922,4.123-5.552,6.184-7.89
		c2.062-2.338,3.534-4.676,5.006-6.137H1.178v-6.137h30.332V28.347L31.509,28.347z M95.411,2.338
		c-0.589,0.584-1.179,1.169-1.767,2.046c-0.59,0.876-1.473,2.045-2.355,3.214l-2.65,3.507c-0.885,1.169-1.768,2.338-2.356,3.507H96
		v2.63H82.748v-2.046c0.59-0.876,1.178-2.045,2.062-3.214s1.473-2.338,2.356-3.507c0.883-1.169,1.767-2.338,2.65-3.215
		c0.883-0.876,1.473-2.045,2.061-2.63h-8.539V0H96v2.338H95.411z M68.024,14.904c-0.884,0.876-1.767,2.045-2.944,3.507
		c-1.178,1.461-2.65,3.214-4.123,5.26c-1.473,2.045-2.945,3.799-4.417,5.845c-1.473,2.045-2.65,4.091-3.829,5.845h15.902v4.383
		H46.528v-3.507c0.883-1.753,2.061-3.507,3.24-5.26c1.178-2.045,2.649-3.799,4.122-5.845c1.472-2.045,2.944-3.799,4.122-5.552
		c1.473-1.753,2.65-3.215,3.534-4.384H47.411v-4.383h20.907v4.091H68.024z"/>
</g>
</svg>
